X: 2151
T: Şedarabân Seyir
C: Şefik Gürmeriç
O: Turkey
F: http://compmusic.upf.edu/node/140
N: sedaraban--seyir--sofyan--1--sefik_gurmeric
N: makam= sedaraban
N: form= seyir
N: usul= sofyan = 4/4
M: 4/4
L: 1/16
K: C _7/8B _7/8e ^f ^c
Q: 1/4=60
%%MIDI tuningsystem comma53
d12 c2d2  | e4 d2c2 B3A G4  | z2g4fe d2c2 B2c2  | \
w:   |   |   | 
d12 z4  | z2d4e2 f2g2 a2_b2  | 
w:   |   | 
g4 =c'2_b2 a2g4f2  | f2e2 e2d2 c2d2 efed  | \
w:   |   | 
d12 z4  | z2G4A2 d4 =c2=B2  | 
w:   |   | 
=c2d2 _e=fed dedc _BAG2  | z2=c4_B2 AGFG A4  | 
w:   |   | 
A16  | z2B4A2 G4 d4  | =c2_B2 A2G2 F2E2 D4  | \
w:   |   |   | 
C2D2 E2ED D8  | |


